X:1
%
T:Bha mi air Banis a'm Baile Ineradhra
T:Inverary Wedding
T:Campbells are coming [1], The
M:6/8
L:1/8
R:March
B:William Gunn - The Caledonian Repository of Music
B:Adapted for the Bagpipes (Glasgow, 1848, p. 76)
Z:AK/Fiddler’s Companion
K:G
A|B<Be dBG|dBB B<BA|B<Be dBG|ABA A<AG|
B<Be dBd|GBd g2a|geg dBG|ABA A<AG:|
g2e g2a|ded dcB|g2e g2a|efe e2d|
g2e g2a|def g2a|geg dBG|ABA A<AG|
g2e g2a|ded dcB|g2e g2a|efe e2d|
def gfe|def g2a|geg dBG|ABA A<AG||

